X: 1
T:The Kerry Jig
R:jig
M:6/8
L:1/8
K:Em
B3 AGE | DB,D EDB, | G,B,D GBd | edB AGA |
~B3 AGE |DB,D EDB, | G,B,D B,DE | ~F3 G2 A :|
~B3 dBG | cAB cdc | BAB ded | edB AGA |
B2A AGE | DB,D EDB, | G,B,D B,DE | FEF G2 A:|
